packages/Snappmarket/src/CheckMarkBoldIcon/index.svg

<svg
  xmlns="http://www.w3.org/2000/svg"
  width="32pt"
  height="24pt"
  viewBox="0 0 32 24"
  version="1.1"
  id="CheckMarkBoldIcon"
>
  <g>
    <path d="M 8.113281 23.164062 L 1.03125 16.8125 C 0.445312 16.25 0.0859375 15.472656 0.0859375 14.617188 C 0.0859375 12.902344 1.535156 11.511719 3.320312 11.511719 C 4.132812 11.511719 4.875 11.800781 5.445312 12.277344 L 5.441406 12.273438 L 10.253906 16.589844 L 26.574219 0.910156 C 27.160156 0.34375 27.96875 -0.0078125 28.863281 -0.0078125 C 30.652344 -0.0078125 32.101562 1.386719 32.101562 3.101562 C 32.101562 3.957031 31.738281 4.734375 31.15625 5.296875 L 12.859375 22.878906 C 12.796875 22.941406 12.730469 22.996094 12.664062 23.058594 C 12.074219 23.644531 11.25 24.007812 10.335938 24.007812 C 9.476562 24.007812 8.699219 23.6875 8.121094 23.164062 Z M 8.113281 23.164062 "/>
  </g>
</svg>

<svg xmlns="http://www.w3.org/2000/svg" viewBox="0 0 32 24">
  <path d="M8.113 23.164l-7.082-6.352a3.034 3.034 0 01-.945-2.195c0-1.715 1.45-3.105 3.234-3.105.813 0 1.555.289 2.125.765l-.004-.004 4.813 4.317L26.574.91a3.284 3.284 0 012.29-.918c1.788 0 3.238 1.395 3.238 3.11a3.05 3.05 0 01-.946 2.195L12.86 22.879c-.062.062-.129.117-.195.18a3.291 3.291 0 01-2.328.949c-.86 0-1.637-.32-2.215-.844zm0 0"/>
</svg>
